images/presidential-games_theme_dark.svg

<svg width="50" height="50" viewBox="0 0 50 50" fill="none" xmlns="http://www.w3.org/2000/svg">
<path fill-rule="evenodd" clip-rule="evenodd" d="M26.4737 0.228397C22.7312 0.804536 15.6095 3.60572 15.6095 4.50191C15.6095 4.79838 16.0617 4.73467 18.3466 4.11664C34.3816 -0.221327 46.7921 15.9645 39.2467 31.3743C35.208 39.6218 29.7648 43.888 17.6497 48.3012C13.2588 49.9005 15.8044 49.9845 22.3929 48.4575C40.8747 44.174 51.0433 33.2496 49.9151 18.8898C49.0668 8.09167 42.2672 1.21162 31.4455 0.202061C28.5095 -0.0718368 28.4217 -0.0713353 26.4737 0.228397ZM33.2227 1.0694C45.5911 3.04588 52.3641 15.0756 48.4099 28.0448C45.5337 37.479 35.7467 44.9136 22.3173 47.8661C20.5738 48.2493 19.1973 48.5102 19.2585 48.4455C19.3199 48.381 21.0296 47.6208 23.0582 46.7559C49.455 35.502 47.7682 0.298878 20.9648 3.07473C18.9543 3.28291 19.1888 3.01077 21.8217 2.08047C25.8085 0.672103 28.9775 0.391181 33.2227 1.0694ZM18.5344 4.45726C13.2386 5.76129 8.48679 9.58131 4.74777 15.5401C2.00177 19.9164 2.01795 20.7647 4.80109 18.3606C22.4851 3.08551 42.6849 20.634 27.1669 37.7905C24.3078 40.9517 17.1297 46.4083 17.3034 45.2889C17.3546 44.9585 17.0423 44.0659 16.463 42.8852C16.1195 42.1852 16.1381 42.1493 18.2429 39.4517C20.5331 36.5161 20.6821 36.0905 20.0128 34.4022C19.8164 33.9068 19.6557 33.1205 19.6557 32.6545C19.6557 31.7146 18.971 30.8039 18.2645 30.8039C17.2346 30.8039 16.612 32.6735 17.4117 33.365C18.8396 34.5996 18.98 35.0315 18.3621 36.2906C16.72 39.6366 14.1935 39.3409 15.3217 35.9347C15.9808 33.9439 16.0074 33.0613 15.4083 33.0613C14.1963 33.0613 13.2364 35.5324 12.9836 39.3025C12.7661 42.5444 12.6088 43.2364 11.4292 46.1412C9.59142 50.6655 10.9253 51.4736 13.1103 47.1598C14.2235 44.9618 14.7533 44.4832 15.2665 45.2114C15.7368 45.8791 15.6987 46.7918 15.1929 46.9671C14.5462 47.1914 12.8515 48.7944 13.0439 48.9998C13.2909 49.2636 15.3924 48.596 15.5333 48.2089C15.6247 47.9579 15.7515 47.9491 16.0874 48.1701C16.7524 48.6078 17.2706 48.0065 17.2999 46.7632C17.3244 45.7278 17.3244 45.7278 17.5103 46.5558C17.7775 47.7449 17.6897 47.7474 20.6421 46.4657C30.649 42.1212 35.6405 37.7283 38.8204 30.4678C45.2112 15.8754 33.4429 0.786477 18.5344 4.45726ZM27.1114 5.12119C46.0707 9.21285 43.5977 35.3242 23.3731 44.5921C16.8519 47.5804 16.3054 47.4073 21.0558 43.8582C26.6765 39.6587 29.2433 36.9265 30.8452 33.4375C38.7664 16.186 21.2833 4.34063 6.01712 16.6156C3.54912 18.6001 3.53151 18.6039 4.45192 16.946C9.70544 7.48193 17.9982 3.15449 27.1114 5.12119ZM16.0857 20.1969C14.4477 21.0795 14.2409 23.1561 15.6654 24.419C17.8497 26.3558 20.9472 23.0274 19.0281 20.8059C18.1677 19.8103 17.1818 19.6062 16.0857 20.1969ZM18.2548 20.7863C20.0999 21.827 18.4176 25.0739 16.4432 24.2828C15.7625 24.0101 15.1294 22.7224 15.3129 21.9835C15.5954 20.845 17.2006 20.1916 18.2548 20.7863ZM8.08025 26.101C7.49473 27.2919 7.30694 28.3162 7.04702 31.7427C6.74426 35.7315 6.35939 37.4038 4.90534 41.0467C3.54603 44.4521 3.35847 45.8532 4.26222 45.8532C5.08838 45.8532 7.04083 43.0623 7.04083 41.8812C7.04083 41.737 7.14246 41.5526 7.26695 41.4716C7.70133 41.1887 7.97933 42.3011 8.19926 45.2013C8.42466 48.1733 8.65887 48.8631 9.44171 48.8631C10.1888 48.8631 10.3731 48.012 10.375 44.553C10.3781 38.6391 10.6961 37.5856 13.5785 33.9392C15.6982 31.2574 16.5615 29.6335 16.5615 28.3278C16.5615 26.6475 15.6592 26.8517 14.7624 28.7346C11.9061 34.7323 8.26853 34.2783 9.28819 28.0516C9.4955 26.7857 9.6038 25.6455 9.52907 25.5178C9.22893 25.0061 8.46798 25.3124 8.08025 26.101ZM8.71005 27.9006C7.5778 34.8762 12.2929 35.5683 15.385 28.8806C15.8568 27.8602 15.9591 27.7591 16.0329 28.241C16.1705 29.1389 15.3086 30.7199 13.2002 33.4375C10.2177 37.2819 10.0641 37.7454 9.90775 43.3876C9.83634 45.9631 9.68901 48.164 9.58 48.2782C9.08254 48.8004 8.70672 47.4592 8.69362 45.1156C8.66768 40.4859 7.59732 39.5134 6.08876 42.749C3.91376 47.4143 3.53793 46.083 5.5725 40.9205C6.81852 37.7589 7.28575 35.493 7.74941 30.3604C7.97315 27.8836 8.57438 25.5642 8.90308 25.9106C8.96425 25.9748 8.87714 26.8705 8.71005 27.9006ZM0.458228 28.5894C-0.860387 30.1237 0.904273 41.9625 2.7451 43.9317C2.98788 44.1915 4.75206 39.4989 5.29045 37.161C6.09924 33.648 5.71888 28.5465 4.64781 28.5465C4.07633 28.5465 3.96541 29.0383 3.99754 31.4309C4.02991 33.8153 3.54341 35.1504 2.68916 35.0207C1.85777 34.8945 1.54549 33.9128 1.5881 31.5563C1.65093 28.0534 1.42624 27.4629 0.458228 28.5894ZM1.87729 35.2153C3.42178 36.6144 4.92295 34.0207 4.60258 30.5067C4.49524 29.3295 4.70207 28.8991 4.99222 29.6958C5.71508 31.6808 4.49238 39.5124 3.02929 42.2675C2.03985 44.1306 -0.143481 32.4661 0.672204 29.6752C0.950684 28.7228 0.971631 28.8224 1.08754 31.6411C1.20536 34.5125 1.23131 34.6302 1.87729 35.2153ZM10.5694 29.3052C9.97297 29.6769 9.56858 31.1606 9.89085 31.7949C10.3414 32.6823 11.288 32.4638 11.7207 31.3725C12.3258 29.8465 11.6493 28.632 10.5694 29.3052ZM11.3804 30.5606C11.3132 31.1696 10.9179 31.8072 10.6075 31.8072C10.2081 31.8072 10.1451 30.9506 10.5018 30.3767C10.9555 29.6471 11.4691 29.7544 11.3804 30.5606ZM2.17505 31.3615C1.33032 32.6321 2.05675 34.8336 3.0181 33.9166C3.89662 33.0788 3.79618 30.8039 2.88077 30.8039C2.6963 30.8039 2.37879 31.0547 2.17505 31.3615ZM18.8155 31.7989C19.0786 32.1051 19.1878 32.5002 19.1033 32.8406C19.0283 33.1423 19.1078 33.6821 19.2797 34.0402C20.158 35.871 20.0509 36.2289 17.7447 39.1736C15.3676 42.2085 15.4131 42.0884 16.1176 43.4737C16.6712 44.562 17.0409 47.609 16.6196 47.609C16.2952 47.609 16.0872 46.999 16.0779 46.0208C16.0505 43.1368 13.9574 43.9229 12.4176 47.3953C11.0293 50.5265 10.5754 49.6125 11.9192 46.3917C12.972 43.868 13.3926 42.0518 13.5827 39.2064C13.7384 36.8778 14.1764 35.0516 14.7816 34.2083C15.3353 33.437 15.3695 33.8356 14.8768 35.3104C13.454 39.5676 15.9265 40.8882 18.4333 37.2099C19.5698 35.5419 19.5077 33.3121 18.3245 33.3121C17.7497 33.3121 17.4274 32.5825 17.7116 31.9251C18.0351 31.1766 18.2591 31.151 18.8155 31.7989ZM3.10046 32.6512C3.0131 33.0174 2.84578 33.3793 2.72844 33.4558C2.35951 33.6961 2.20551 32.8072 2.49851 32.1292C2.85625 31.302 3.32491 31.7083 3.10046 32.6512ZM23.1648 32.8315C22.6481 33.1486 21.9771 34.5113 21.1676 36.8883C20.8275 37.8874 19.855 40.0379 19.0064 41.6675C17.0661 45.394 17.0602 45.3917 20.9822 42.4403C22.7781 41.0889 24.1514 39.9594 24.0343 39.9303C23.917 39.9012 23.5264 39.8089 23.1665 39.7251C22.1361 39.4858 22.2458 37.8941 23.464 35.4135C24.7396 32.816 24.6367 31.9283 23.1648 32.8315ZM23.4438 34.2527C21.8895 36.9428 21.4471 39.2611 22.3544 39.9602C22.7347 40.2534 21.09 41.8278 19.2328 42.9487C19.0655 43.0498 19.4539 42.0796 20.0958 40.7931C20.738 39.5067 21.5618 37.551 21.9264 36.4474C22.5546 34.5469 23.2796 33.3121 23.767 33.3121C23.8882 33.3121 23.7425 33.7355 23.4438 34.2527ZM16.2833 35.0714C15.6316 35.4807 15.0039 37.4858 15.3788 37.9616C15.8479 38.5573 16.6027 38.2997 17.2192 37.3333C18.2129 35.7757 17.5838 34.2549 16.2833 35.0714ZM17.2756 35.8163C17.2756 36.0902 16.9573 36.6827 16.5684 37.1331C15.6794 38.163 15.4769 37.1369 16.3409 35.9796C16.9278 35.193 17.2756 35.1323 17.2756 35.8163ZM23.558 36.7017C22.6971 37.6089 22.8111 39.1703 23.7465 39.2842C24.864 39.4204 25.8059 36.9265 24.8724 36.3037C24.3666 35.9666 24.2112 36.0135 23.558 36.7017ZM24.6541 37.4329C24.6541 37.7677 24.4849 38.2202 24.2778 38.4384C23.5283 39.2283 23.1296 38.1304 23.8579 37.2824C24.3947 36.6573 24.6541 36.7065 24.6541 37.4329Z" fill="white"/>
<path d="M27.1114 5.12119C46.0707 9.21285 43.5977 35.3242 23.3731 44.5921C16.8519 47.5804 16.3054 47.4073 21.0558 43.8582C26.6765 39.6587 29.2433 36.9265 30.8452 33.4375C38.7664 16.186 21.2833 4.34063 6.01712 16.6156C3.54912 18.6001 3.53151 18.6039 4.45192 16.946C9.70544 7.48193 17.9982 3.15449 27.1114 5.12119Z" fill="white"/>
<path d="M33.2227 1.0694C45.5911 3.04588 52.3641 15.0756 48.4099 28.0448C45.5337 37.479 35.7467 44.9136 22.3173 47.8661C20.5738 48.2493 19.1973 48.5102 19.2585 48.4455C19.3199 48.381 21.0296 47.6208 23.0582 46.7559C49.455 35.502 47.7682 0.298878 20.9648 3.07473C18.9543 3.28291 19.1888 3.01077 21.8217 2.08047C25.8085 0.672103 28.9775 0.391181 33.2227 1.0694Z" fill="white"/>
<path d="M8.71005 27.9006C7.5778 34.8762 12.2929 35.5683 15.385 28.8806C15.8568 27.8602 15.9591 27.7591 16.0329 28.241C16.1705 29.1389 15.3086 30.7199 13.2002 33.4375C10.2177 37.2819 10.0641 37.7454 9.90775 43.3876C9.83634 45.9631 9.68901 48.164 9.58 48.2782C9.08254 48.8004 8.70672 47.4592 8.69362 45.1156C8.66768 40.4859 7.59732 39.5134 6.08876 42.749C3.91376 47.4143 3.53793 46.083 5.5725 40.9205C6.81852 37.7589 7.28575 35.493 7.74941 30.3604C7.97315 27.8836 8.57438 25.5642 8.90308 25.9106C8.96425 25.9748 8.87714 26.8705 8.71005 27.9006Z" fill="white"/>
<path d="M1.87729 35.2153C3.42178 36.6144 4.92295 34.0207 4.60258 30.5067C4.49524 29.3295 4.70207 28.8991 4.99222 29.6958C5.71508 31.6808 4.49238 39.5124 3.02929 42.2675C2.03985 44.1306 -0.143481 32.4661 0.672204 29.6752C0.950684 28.7228 0.971631 28.8224 1.08754 31.6411C1.20536 34.5125 1.23131 34.6302 1.87729 35.2153Z" fill="white"/>
<path d="M3.10046 32.6512C3.0131 33.0174 2.84578 33.3793 2.72844 33.4558C2.35951 33.6961 2.20551 32.8072 2.49851 32.1292C2.85625 31.302 3.32491 31.7083 3.10046 32.6512Z" fill="white"/>
<path d="M11.3804 30.5606C11.3132 31.1696 10.9179 31.8072 10.6075 31.8072C10.2081 31.8072 10.1451 30.9506 10.5018 30.3767C10.9555 29.6471 11.4691 29.7544 11.3804 30.5606Z" fill="white"/>
<path d="M18.2548 20.7863C20.0999 21.827 18.4176 25.0739 16.4432 24.2828C15.7625 24.0101 15.1294 22.7224 15.3129 21.9835C15.5954 20.845 17.2006 20.1916 18.2548 20.7863Z" fill="white"/>
<path d="M17.2756 35.8163C17.2756 36.0902 16.9573 36.6827 16.5684 37.1331C15.6794 38.163 15.4769 37.1369 16.3409 35.9796C16.9278 35.193 17.2756 35.1323 17.2756 35.8163Z" fill="white"/>
<path d="M18.8155 31.7989C19.0786 32.1051 19.1878 32.5002 19.1033 32.8406C19.0283 33.1423 19.1078 33.6821 19.2797 34.0402C20.158 35.871 20.0509 36.2289 17.7447 39.1736C15.3676 42.2085 15.4131 42.0884 16.1176 43.4737C16.6712 44.562 17.0409 47.609 16.6196 47.609C16.2952 47.609 16.0872 46.999 16.0779 46.0208C16.0505 43.1368 13.9574 43.9229 12.4176 47.3953C11.0293 50.5265 10.5754 49.6125 11.9192 46.3917C12.972 43.868 13.3926 42.0518 13.5827 39.2064C13.7384 36.8778 14.1764 35.0516 14.7816 34.2083C15.3353 33.437 15.3695 33.8356 14.8768 35.3104C13.454 39.5676 15.9265 40.8882 18.4333 37.2099C19.5698 35.5419 19.5077 33.3121 18.3245 33.3121C17.7497 33.3121 17.4274 32.5825 17.7116 31.9251C18.0351 31.1766 18.2591 31.151 18.8155 31.7989Z" fill="white"/>
<path d="M23.4438 34.2527C21.8895 36.9428 21.4471 39.2611 22.3544 39.9602C22.7347 40.2534 21.09 41.8278 19.2328 42.9487C19.0655 43.0498 19.4539 42.0796 20.0958 40.7931C20.738 39.5067 21.5618 37.551 21.9264 36.4474C22.5546 34.5469 23.2796 33.3121 23.767 33.3121C23.8882 33.3121 23.7425 33.7355 23.4438 34.2527Z" fill="white"/>
<path d="M24.6541 37.4329C24.6541 37.7677 24.4849 38.2202 24.2778 38.4384C23.5283 39.2283 23.1296 38.1304 23.8579 37.2824C24.3947 36.6573 24.6541 36.7065 24.6541 37.4329Z" fill="white"/>
</svg>

<svg width="50" height="50" fill="none" xmlns="http://www.w3.org/2000/svg"><path fill-rule="evenodd" clip-rule="evenodd" d="M26.474.228C22.73.805 15.61 3.606 15.61 4.502c0 .296.452.233 2.737-.385 16.035-4.338 28.445 11.848 20.9 27.257-4.039 8.248-9.482 12.514-21.597 16.927-4.391 1.6-1.846 1.683 4.743.157 18.482-4.284 28.65-15.208 27.522-29.568C49.067 8.092 42.267 1.212 31.445.202c-2.936-.274-3.023-.273-4.971.026Zm6.749.841C45.59 3.046 52.364 15.076 48.41 28.045c-2.876 9.434-12.663 16.869-26.093 19.821-1.743.383-3.12.644-3.058.58.06-.065 1.77-.825 3.8-1.69C49.454 35.502 47.768.299 20.964 3.075c-2.01.208-1.776-.064.857-.995 3.986-1.408 7.155-1.689 11.4-1.01ZM18.534 4.457C13.24 5.761 8.487 9.581 4.748 15.54c-2.746 4.376-2.73 5.225.053 2.82 17.684-15.274 37.884 2.274 22.366 19.43-2.86 3.162-10.037 8.618-9.864 7.499.052-.33-.26-1.223-.84-2.404-.344-.7-.325-.736 1.78-3.433 2.29-2.936 2.44-3.361 1.77-5.05-.197-.495-.357-1.282-.357-1.748 0-.94-.685-1.85-1.391-1.85-1.03 0-1.653 1.87-.853 2.561 1.428 1.235 1.568 1.666.95 2.926-1.642 3.346-4.168 3.05-3.04-.356.659-1.991.685-2.874.086-2.874-1.212 0-2.172 2.471-2.424 6.242-.218 3.241-.375 3.933-1.555 6.838-1.838 4.525-.504 5.333 1.681 1.019 1.114-2.198 1.643-2.677 2.157-1.949.47.668.432 1.58-.074 1.756-.647.224-2.341 1.827-2.15 2.033.248.264 2.35-.404 2.49-.791.092-.251.219-.26.554-.039.665.438 1.184-.163 1.213-1.407.024-1.035.024-1.035.21-.207.267 1.189.18 1.191 3.132-.09C30.65 42.12 35.641 37.728 38.82 30.468 45.211 15.875 33.443.786 18.534 4.458Zm8.577.664c18.96 4.092 16.487 30.203-3.738 39.471-6.521 2.988-7.068 2.815-2.317-.734 5.62-4.2 8.187-6.931 9.79-10.42 7.92-17.252-9.563-29.097-24.829-16.822-2.468 1.984-2.485 1.988-1.565.33C9.705 7.482 17.998 3.154 27.112 5.121ZM16.086 20.197c-1.638.883-1.845 2.96-.42 4.222 2.184 1.937 5.281-1.392 3.362-3.613-.86-.996-1.846-1.2-2.942-.61Zm2.169.59c1.845 1.04.163 4.287-1.812 3.496-.68-.273-1.314-1.56-1.13-2.3.282-1.138 1.888-1.791 2.942-1.197ZM8.08 26.1c-.585 1.19-.773 2.215-1.033 5.642-.303 3.988-.688 5.66-2.142 9.304-1.359 3.405-1.547 4.806-.643 4.806.826 0 2.779-2.79 2.779-3.972a.55.55 0 0 1 .226-.41c.434-.282.712.83.932 3.73.226 2.972.46 3.662 1.243 3.662.747 0 .931-.851.933-4.31.003-5.914.321-6.967 3.204-10.614 2.12-2.682 2.982-4.305 2.982-5.611 0-1.68-.902-1.476-1.799.407-2.856 5.997-6.493 5.543-5.474-.683.207-1.266.316-2.407.241-2.534-.3-.512-1.061-.206-1.449.583Zm.63 1.8c-1.132 6.975 3.583 7.667 6.675.98.472-1.02.574-1.122.648-.64.137.898-.724 2.479-2.833 5.197-2.982 3.844-3.136 4.307-3.292 9.95-.072 2.575-.219 4.776-.328 4.89-.497.522-.873-.819-.886-3.162-.026-4.63-1.097-5.603-2.605-2.367-2.175 4.665-2.551 3.334-.517-1.829C6.82 37.76 7.287 35.493 7.75 30.36c.224-2.476.825-4.796 1.154-4.45.061.065-.026.96-.193 1.99Zm-8.252.688C-.86 30.124.904 41.962 2.745 43.932c.243.26 2.007-4.433 2.545-6.771.81-3.513.429-8.614-.642-8.614-.572 0-.683.491-.65 2.884.032 2.384-.455 3.72-1.309 3.59-.831-.127-1.144-1.108-1.1-3.465.062-3.503-.163-4.093-1.13-2.967Zm1.42 6.626c1.544 1.4 3.045-1.194 2.725-4.708-.108-1.178.1-1.608.39-.811.722 1.985-.5 9.816-1.964 12.571-.99 1.864-3.172-9.8-2.357-12.592.279-.952.3-.853.416 1.966.117 2.872.143 2.99.79 3.574Zm8.691-5.91c-.596.372-1 1.856-.678 2.49.45.887 1.397.669 1.83-.423.605-1.526-.072-2.74-1.152-2.067Zm.811 1.256c-.067.609-.462 1.246-.773 1.246-.399 0-.462-.856-.105-1.43.454-.73.967-.623.878.184Zm-9.205.8c-.845 1.271-.118 3.473.843 2.556.879-.838.778-3.113-.137-3.113-.185 0-.502.25-.706.558Zm16.64.438c.264.306.373.701.288 1.042-.075.301.005.841.177 1.2.878 1.83.77 2.188-1.535 5.133-2.377 3.035-2.332 2.914-1.627 4.3.553 1.088.923 4.135.502 4.135-.325 0-.533-.61-.542-1.588-.027-2.884-2.12-2.098-3.66 1.374-1.389 3.131-1.843 2.217-.499-1.003 1.053-2.524 1.474-4.34 1.664-7.186.155-2.328.593-4.154 1.199-4.998.553-.771.588-.372.095 1.102-1.423 4.258 1.05 5.578 3.556 1.9 1.137-1.668 1.075-3.898-.108-3.898-.575 0-.898-.73-.613-1.387.323-.748.547-.774 1.104-.126ZM3.1 32.65c-.087.366-.254.728-.372.805-.368.24-.522-.649-.23-1.327.358-.827.827-.42.602.522Zm20.065.18c-.517.318-1.188 1.68-1.997 4.057-.34 1-1.313 3.15-2.162 4.78-1.94 3.726-1.946 3.724 1.976.772 1.796-1.351 3.17-2.48 3.052-2.51-.117-.029-.508-.121-.867-.205-1.03-.24-.921-1.83.297-4.312 1.276-2.597 1.173-3.485-.3-2.581Zm.279 1.422c-1.554 2.69-1.997 5.008-1.09 5.707.38.293-1.264 1.868-3.121 2.989-.168.1.22-.87.863-2.156.642-1.286 1.466-3.242 1.83-4.346.629-1.9 1.354-3.135 1.841-3.135.121 0-.024.424-.323.94Zm-7.16.818c-.652.41-1.28 2.415-.905 2.89.469.596 1.224.339 1.84-.628.994-1.557.365-3.078-.936-2.262Zm.992.745c0 .274-.319.867-.708 1.317-.889 1.03-1.091.004-.227-1.153.587-.787.935-.848.935-.164Zm6.282.886c-.86.907-.747 2.468.189 2.582 1.117.136 2.059-2.358 1.125-2.98-.505-.337-.66-.29-1.314.398Zm1.096.73c0 .336-.17.788-.376 1.006-.75.79-1.148-.308-.42-1.156.537-.625.796-.575.796.15Z" fill="#fff"/><path d="M27.111 5.121c18.96 4.092 16.487 30.203-3.738 39.471-6.521 2.988-7.068 2.815-2.317-.734 5.62-4.2 8.187-6.931 9.79-10.42 7.92-17.252-9.563-29.097-24.829-16.822-2.468 1.984-2.485 1.988-1.565.33C9.705 7.482 17.998 3.154 27.112 5.121Z" fill="#fff"/><path d="M33.223 1.07C45.59 3.045 52.364 15.075 48.41 28.044c-2.876 9.434-12.663 16.869-26.093 19.821-1.743.383-3.12.644-3.058.58.06-.065 1.77-.825 3.8-1.69C49.454 35.502 47.768.299 20.964 3.075c-2.01.208-1.776-.064.857-.995 3.986-1.408 7.155-1.689 11.4-1.01ZM8.71 27.9c-1.132 6.976 3.583 7.668 6.675.98.472-1.02.574-1.12.648-.639.137.898-.724 2.479-2.833 5.197-2.982 3.844-3.136 4.307-3.292 9.95-.072 2.575-.219 4.776-.328 4.89-.497.522-.873-.819-.886-3.162-.026-4.63-1.097-5.603-2.605-2.367-2.175 4.665-2.551 3.334-.517-1.829 1.248-3.16 1.715-5.427 2.178-10.56.224-2.476.825-4.796 1.154-4.45.061.065-.026.96-.193 1.99Zm-6.833 7.315c1.545 1.4 3.046-1.194 2.726-4.708-.108-1.178.1-1.608.39-.811.722 1.985-.5 9.816-1.964 12.571-.99 1.864-3.172-9.8-2.357-12.592.279-.952.3-.853.416 1.966.117 2.872.143 2.99.79 3.574Z" fill="#fff"/><path d="M3.1 32.651c-.087.366-.254.728-.372.805-.368.24-.522-.649-.23-1.327.358-.827.827-.42.602.522Zm8.28-2.091c-.067.61-.462 1.247-.773 1.247-.399 0-.462-.856-.105-1.43.454-.73.967-.623.878.184Zm6.875-9.774c1.845 1.041.163 4.288-1.812 3.497-.68-.273-1.314-1.56-1.13-2.3.282-1.138 1.888-1.791 2.942-1.197Zm-.979 15.03c0 .274-.319.867-.708 1.317-.889 1.03-1.091.004-.227-1.153.587-.787.935-.848.935-.164Z" fill="#fff"/><path d="M18.816 31.799c.263.306.372.701.287 1.042-.075.301.005.841.177 1.2.878 1.83.77 2.188-1.535 5.133-2.377 3.035-2.332 2.914-1.627 4.3.553 1.088.923 4.135.502 4.135-.325 0-.533-.61-.542-1.588-.027-2.884-2.12-2.098-3.66 1.374-1.389 3.131-1.843 2.217-.499-1.003 1.053-2.524 1.474-4.34 1.664-7.186.155-2.328.593-4.154 1.199-4.998.553-.771.588-.372.095 1.102-1.423 4.258 1.05 5.578 3.556 1.9 1.137-1.668 1.075-3.898-.108-3.898-.575 0-.898-.73-.613-1.387.323-.748.547-.774 1.104-.126Zm4.628 2.454c-1.554 2.69-1.997 5.008-1.09 5.707.38.293-1.264 1.868-3.121 2.989-.168.1.22-.87.863-2.156.642-1.286 1.466-3.242 1.83-4.346.629-1.9 1.354-3.135 1.841-3.135.121 0-.024.424-.323.94Zm1.21 3.18c0 .335-.17.787-.376 1.005-.75.79-1.148-.308-.42-1.156.537-.625.796-.575.796.15Z" fill="#fff"/></svg>
